X: 884
T: Early in the Morning   #2
R: hornpipe
%S: s:2 b:10(5+5)
B: Francis O'Neill: "The Dance Music of Ireland" (1907) #884
Z: Frank Nordberg - http://www.musicaviva.com
F: http://www.musicaviva.com/abc/tunes/ireland/oneill-1001/0884/oneill-1001-0884-1.abc
N: Compacted via repeats and multiple endings [JC]
N: Compacted by using labels and play order [JC]
P: Play (A1A2)x2 + (BA2)x2
M: C|
L: 1/8
K: A
E2 "^A"|: E>A (3AAA (Ac)BA | GABc d2(cd) | efge dB [1,3 AG | EDEF GBAG :|[2,4 GA | B2AA "^fine"A2 :|
|: (cd) "^B"| (3eee ed cAce | dcBc d2(cd) | (3efg fd edce | dcBA GBAG |]
